packages/katcn/src/icons/svg/middleAlign-solid.svg

<svg width="24" height="25" viewBox="0 0 24 25" fill="none" xmlns="http://www.w3.org/2000/svg">
<path d="M3.9 5.99601H20.2C21.2 5.99601 22.1 5.19601 22.1 4.09601C22.1 3.09601 21.3 2.19601 20.2 2.19601H3.9C2.8 2.29601 2 3.09601 2 4.19601C2 5.19601 2.8 5.99601 3.9 5.99601Z" fill="black"/>
<path d="M20.1 13.196H3.9C2.9 13.196 2 13.996 2 15.096C2 16.096 2.8 16.996 3.9 16.996H20.2C21.2 16.996 22.1 16.196 22.1 15.096C22 13.996 21.2 13.196 20.1 13.196Z" fill="black"/>
<path d="M7.00001 7.69601C6.00001 7.69601 5.10001 8.49601 5.10001 9.59601C5.10001 10.596 5.90001 11.496 7.00001 11.496H17C18 11.496 18.9 10.696 18.9 9.59601C18.9 8.59601 18.1 7.69601 17 7.69601H7.00001Z" fill="black"/>
<path d="M17 18.596H7.00001C6.00001 18.596 5.10001 19.396 5.10001 20.496C5.10001 21.496 6.00001 22.296 7.00001 22.296H17C18 22.296 18.9 21.496 18.9 20.396C18.9 19.396 18 18.596 17 18.596Z" fill="black"/>
</svg>

<svg xmlns="http://www.w3.org/2000/svg" fill="none" viewBox="0 0 24 25"><path fill="#000" d="M3.9 5.996h16.3c1 0 1.9-.8 1.9-1.9 0-1-.8-1.9-1.9-1.9H3.9c-1.1.1-1.9.9-1.9 2 0 1 .8 1.8 1.9 1.8m16.2 7.2H3.9c-1 0-1.9.8-1.9 1.9 0 1 .8 1.9 1.9 1.9h16.3c1 0 1.9-.8 1.9-1.9-.1-1.1-.9-1.9-2-1.9M7 7.696c-1 0-1.9.8-1.9 1.9 0 1 .8 1.9 1.9 1.9h10c1 0 1.9-.8 1.9-1.9 0-1-.8-1.9-1.9-1.9zm10 10.9H7c-1 0-1.9.8-1.9 1.9 0 1 .9 1.8 1.9 1.8h10c1 0 1.9-.8 1.9-1.9 0-1-.9-1.8-1.9-1.8"/></svg>
